media/nav-icons/integration/logo-informatica.svg

<svg width="51" height="52" viewBox="0 0 51 52" fill="none" xmlns="http://www.w3.org/2000/svg">
<path d="M22.5686 26.6684L16.3272 27.7256L12.0978 32.3479L12.6657 38.9932L27.8989 30.2528L22.5686 26.6684Z" fill="#FF4D00"/>
<path d="M0.00512123 26.0021L12.6658 38.9935L25.3278 0.0213013L0.00512123 26.0021Z" fill="#FF7D00"/>
<path d="M8.4411 26.0031L27.8982 30.2531L27.3646 20.663L8.4411 26.0031Z" fill="#001AFF"/>
<path d="M50.649 26.0038L41.2679 28.1274L35.0637 32.2586L34.6105 36.4158L37.1291 39.8758L50.649 26.0038Z" fill="#E23400"/>
<path d="M26.6966 1.42813L35.0641 32.2579L50.6494 26.0035L26.6966 1.42813Z" fill="#FF4D00"/>
<path d="M35.0638 32.2585L14.2378 40.6081L25.3278 51.9856L37.1291 39.8758L35.0638 32.2585Z" fill="#FF7D00"/>
</svg>

<svg xmlns="http://www.w3.org/2000/svg" viewBox="0 0 51 52">
	<path fill="#FF4D00" d="m22.57 26.67-6.24 1.06-4.23 4.62.57 6.64 15.23-8.74-5.33-3.58Z"/>
	<path fill="#FF7D00" d="m0 26 12.67 13L25.33.01 0 26Z"/>
	<path fill="#001AFF" d="m8.44 26 19.46 4.25-.54-9.59L8.44 26Z"/>
	<path fill="#E23400" d="m50.65 26-9.38 2.13-6.2 4.13-.46 4.16 2.52 3.46L50.65 26Z"/>
	<path fill="#FF4D00" d="m26.7 1.43 8.36 30.83L50.65 26 26.7 1.43Z"/>
	<path fill="#FF7D00" d="M35.06 32.26 14.24 40.6l11.09 11.38 11.8-12.11-2.07-7.62Z"/>
</svg>
